plasma/desktoptheme/Materia-Color/icons/juk.svg

<svg xmlns="http://www.w3.org/2000/svg" width="32" height="32" version="1">
 <defs id="materia">
  <style id="current-color-scheme" type="text/css">
   .ColorScheme-Background {color:#181818; } .ColorScheme-ButtonBackground { color:#343434; } .ColorScheme-Highlight { color:#4285f4; } .ColorScheme-Text { color:#dfdfdf; } .ColorScheme-ViewBackground { color:#242424; } .ColorScheme-NegativeText { color:#f44336; } .ColorScheme-PositiveText { color:#4caf50; } .ColorScheme-NeutralText { color:#ff9800; }
  </style>
 </defs>
 <g id="22-22-juk" transform="translate(27,5)">
  <rect style="opacity:0.001" width="22" height="22" x="5" y="5"/>
  <path style="fill:currentColor" class="ColorScheme-Text" d="m 14.191406,8 c -0.0089,-9.76e-5 -0.01649,0.0011 -0.02539,0.00195 -0.1641,0.013032 -0.275283,0.171679 -0.230469,0.3300781 0.917986,3.2447639 2.69527,9.4768659 2.806641,9.8671879 A 3.5,3 0 0 0 15.5,18 3.5,3 0 0 0 12,21 3.5,3 0 0 0 15.5,24 3.5,3 0 0 0 19,21 3.5,3 0 0 0 18.96875,20.619141 c -0.0011,-0.02355 0.01005,-0.04325 0.002,-0.06836 0,0 -1.245195,-4.880804 -2.167969,-7.972656 0.65389,0.274369 1.106603,0.424401 1.751954,0.712891 0.82956,0.370839 1.479019,0.834923 2,2.558593 0.08717,0.281979 0.50139,0.22472 0.509765,-0.07031 6.87e-4,-0.03324 -0.01205,-0.04732 -0.01172,-0.08008 0,0 0,-0.002 0,-0.002 0.01794,-1.877543 -0.37648,-2.818425 -1.1875,-3.527344 -0.825536,-0.72156 -1.893319,-1.050683 -2.941406,-1.564453 C 15.951335,10.128756 15.149694,9.1009524 14.394531,8.1035156 14.346711,8.0399476 14.270926,8.002148 14.191406,8 Z"/>
 </g>
 <g id="juk">
  <rect style="opacity:0.001" width="32" height="32" x="0" y="0"/>
  <path style="fill:currentColor" class="ColorScheme-Text" d="M 11.466797 2 C 11.451147 1.9998296 11.435502 2.0005189 11.419922 2.0019531 C 11.132747 2.0247651 10.939153 2.3048329 11.017578 2.5820312 C 12.674008 8.4369337 17.052734 20.386719 17.052734 20.386719 C 17.05515 20.394056 17.061675 20.399061 17.064453 20.40625 A 6.5 5 0 0 0 14.5 20 A 6.5 5 0 0 0 8 25 A 6.5 5 0 0 0 14.5 30 A 6.5 5 0 0 0 21 25 A 6.5 5 0 0 0 20.558594 23.1875 A 6.5 5 0 0 0 20.556641 23.183594 C 20.120207 22.008768 17.522578 14.995485 16.035156 10.011719 C 17.179464 10.491865 18.472198 10.754908 19.601562 11.259766 C 21.053296 11.908735 22.189848 12.719905 23.101562 15.736328 C 23.254105 16.229792 23.979484 16.131536 23.994141 15.615234 C 23.995341 15.557064 23.972086 15.531943 23.972656 15.474609 L 23.974609 15.474609 C 23.974108 15.473109 23.973156 15.472403 23.972656 15.470703 C 24.004056 12.185003 23.315768 10.539437 21.896484 9.2988281 C 20.4518 8.0361221 18.0822 7.457692 16.248047 6.5585938 C 14.546185 5.7243448 13.141848 3.9271551 11.820312 2.1816406 C 11.73662 2.0703924 11.605957 2.0037587 11.466797 2 z"/>
 </g>
</svg>

<?xml version="1.0" encoding="UTF-8"?>
<svg width="32" height="32" version="1" xmlns="http://www.w3.org/2000/svg">
 <defs id="materia">
  <style id="current-color-scheme" type="text/css">.ColorScheme-Background {color:#181818; } .ColorScheme-ButtonBackground { color:#343434; } .ColorScheme-Highlight { color:#4285f4; } .ColorScheme-Text { color:#dfdfdf; } .ColorScheme-ViewBackground { color:#242424; } .ColorScheme-NegativeText { color:#f44336; } .ColorScheme-PositiveText { color:#4caf50; } .ColorScheme-NeutralText { color:#ff9800; }</style>
 </defs>
 <g id="22-22-juk" transform="translate(27,5)">
  <rect x="5" y="5" width="22" height="22" opacity=".001"/>
  <path class="ColorScheme-Text" d="m14.191 8c-0.0089-9.76e-5 -0.01649 0.0011-0.02539 0.00195-0.1641 0.013032-0.27528 0.17168-0.23047 0.33008 0.91799 3.2448 2.6953 9.4769 2.8066 9.8672a3.5 3 0 0 0-1.2422-0.19922 3.5 3 0 0 0-3.5 3 3.5 3 0 0 0 3.5 3 3.5 3 0 0 0 3.5-3 3.5 3 0 0 0-0.03125-0.38086c-0.0011-0.02355 0.01005-0.04325 2e-3 -0.06836 0 0-1.2452-4.8808-2.168-7.9727 0.65389 0.27437 1.1066 0.4244 1.752 0.71289 0.82956 0.37084 1.479 0.83492 2 2.5586 0.08717 0.28198 0.50139 0.22472 0.50976-0.07031 6.87e-4 -0.03324-0.01205-0.04732-0.01172-0.08008v-2e-3c0.01794-1.8775-0.37648-2.8184-1.1875-3.5273-0.82554-0.72156-1.8933-1.0507-2.9414-1.5645-0.97254-0.47667-1.7742-1.5045-2.5293-2.5019-0.04782-0.063568-0.1236-0.10137-0.20312-0.10352z" fill="currentColor"/>
 </g>
 <g id="juk">
  <rect width="32" height="32" opacity=".001"/>
  <path class="ColorScheme-Text" d="m11.467 2c-0.01565-1.704e-4 -0.031295 5.189e-4 -0.046875 0.0019531-0.28718 0.022812-0.48077 0.30288-0.40234 0.58008 1.6564 5.8549 6.0352 17.805 6.0352 17.805 0.002416 0.007337 0.008941 0.012342 0.011719 0.019531a6.5 5 0 0 0-2.5645-0.40625 6.5 5 0 0 0-6.5 5 6.5 5 0 0 0 6.5 5 6.5 5 0 0 0 6.5-5 6.5 5 0 0 0-0.44141-1.8125 6.5 5 0 0 0-0.001953-0.003906c-0.43643-1.1748-3.0341-8.1881-4.5215-13.172 1.1443 0.48015 2.437 0.74319 3.5664 1.248 1.4517 0.64897 2.5883 1.4601 3.5 4.4766 0.15254 0.49346 0.87792 0.39521 0.89258-0.12109 0.0012-0.05817-0.022055-0.083291-0.021485-0.14062h0.001953c-5.01e-4 -0.0015-0.001453-0.002206-0.001953-0.003906 0.0314-3.2857-0.65689-4.9313-2.0762-6.1719-1.4447-1.2627-3.8143-1.8411-5.6484-2.7402-1.7019-0.83425-3.1062-2.6314-4.4277-4.377-0.083692-0.11125-0.21436-0.17788-0.35352-0.18164z" fill="currentColor"/>
 </g>
</svg>
